X:2244
T:The Herring Fleet 
C:Traditional
O:Isle of Man
S:John Cain, Douglas at 69
Z:Clague collection
B:Kiaull Vannin #244
N:See also KV 224,259,274,284,391,392.
M:3/4 
L:1/8 
Q:120 
K:D 
F>G|A2 B2 c2|d4 ed|c2 d2 B2|A4 F>G|A2 B2 c2|d2 e2 d2|c2 !fermata!A2 F>G| 
A2 A2 A2|E4 E2|F2 D2 E>F|G4 F>G|A2 !fermata!d2 B2|A2 !fermata!F2 D2|E2 D2||
 
